icon-themes/sifr_svg/cmd/sc_insertzwnbsp.svg

<svg viewBox="0 0 16 16" xmlns="http://www.w3.org/2000/svg"><path d="m3 3v10h4v-2h-2v-6h2v-2zm6 0v2h2v6h-2v2h4v-10z" fill="#555753"/></svg>

<svg xmlns="http://www.w3.org/2000/svg" viewBox="0 0 16 16">
  <path
     style="fill:#555753"
     d="M 3 3 L 3 13 L 7 13 L 7 11 L 5 11 L 5 5 L 7 5 L 7 3 L 3 3 z M 9 3 L 9 5 L 11 5 L 11 11 L 9 11 L 9 13 L 13 13 L 13 3 L 9 3 z "
     />
</svg>
